src/assets/images/contract.svg

<svg fill="none" height="24" viewBox="0 0 24 24" width="24" xmlns="http://www.w3.org/2000/svg" xmlns:xlink="http://www.w3.org/1999/xlink"><clipPath id="a"><path d="m0 0h24v24h-24z"/></clipPath><g clip-path="url(#a)"><path d="m.0683969 3.25239c0-1.76322 1.4350931-3.1983129 3.2019231-3.1983129 1.59014 0 2.90986 1.1610529 3.15865 2.6826929 1.72356-.40745 3.61303.0649 4.96153 1.40986l.1803.18389-2.35817 2.36178-.1839-.1839c-.76803-.76442-2.00841-.76442-2.77644.00361s-.76803 2.01202-.00361 2.77644l.46154.46154 2.36178 2.35821 2.4988 2.4988-2.35817 2.3617-2.50241-2.4988-2.81971-2.8197c-1.42788-1.4279-1.87139-3.46511-1.33053-5.27521-1.42428-.32091-2.4915831-1.59375-2.4915831-3.1226zm6.9230731 6.21635 2.36178 2.36176 2.49885-2.49517 2.3617-2.36178.4616-.45793c.768-.77164 2.0084-.76803 2.7692-.00361.768.76442.768 2.00841 0 2.77284l-.1803.18389 2.3582 2.36176.1839-.1839c1.4134-1.4134 1.8606-3.42546 1.3449-5.21752 1.5685-.20553 2.7801-1.55048 2.7801-3.17308 0-1.76683-1.4315-3.2019229-3.1983-3.2019229-1.619 0-2.9568 1.2007229-3.1731 2.7584129-1.7993-.52644-3.8257-.07933-5.2464 1.33774l-2.82333 2.82332zm14.21753 8.10936c.4255-1.738-.0432-3.649-1.4026-5.0048l-.4652-.4651-2.3581-2.36182-2.4916-2.49158-2.3618 2.35817 2.4916 2.49523 2.8233 2.8233c.768.7716.768 2.012.0036 2.7728-.7644.768-2.0084.768-2.7764 0l-.1803-.1803-2.3582 2.3618.1803.1803c1.4351 1.4387 3.494 1.875 5.3113 1.3197.2921 1.4603 1.5865 2.5601 3.1334 2.5601 1.7668 0 3.2019-1.4315 3.2019-3.1983 0-1.6154-1.1971-2.9531-2.7512-3.1695zm-4.5036-2.8269-2.3618-2.3618-2.4915 2.4952-2.82337 2.8233c-.76442.7644-2.00841.7644-2.78005-.0036-.76442-.768-.76442-2.0084 0-2.7764l.1839-.1803-2.36178-2.3582-.18029.1767c-1.3738 1.3738-1.83533 3.3101-1.38822 5.0625-1.41346.3353-2.4627392 1.601-2.4627392 3.1154 0 1.7668 1.4314892 3.2019 3.2019192 3.2019 1.51803-.0036 2.79087-1.0601 3.11899-2.4844 1.74159.4327 3.66704-.0288 5.03004-1.3918l.4616-.4651 2.3581-2.3618z" fill="#000"/></g></svg>

<svg width="24" height="24" viewBox="0 0 24 24" fill="none" xmlns="http://www.w3.org/2000/svg">
<g clip-path="url(#clip0_115_366)">
<path d="M0.0683969 3.25239C0.0683969 1.48917 1.50349 0.0540771 3.27032 0.0540771C4.86046 0.0540771 6.18018 1.21513 6.42897 2.73677C8.15253 2.32932 10.042 2.80167 11.3905 4.14663L11.5708 4.33052L9.21263 6.6923L9.02873 6.5084C8.2607 5.74398 7.02032 5.74398 6.25229 6.51201C5.48426 7.28004 5.48426 8.52403 6.24868 9.28845L6.71022 9.74999L9.072 12.1082L11.5708 14.607L9.21263 16.9687L6.71022 14.4699L3.89051 11.6502C2.46263 10.2223 2.01912 8.18509 2.55998 6.37499C1.1357 6.05408 0.0683969 4.78124 0.0683969 3.25239ZM6.99147 9.46874L9.35325 11.8305L11.8521 9.33533L14.2138 6.97355L14.6754 6.51562C15.4434 5.74398 16.6838 5.74759 17.4446 6.51201C18.2126 7.27643 18.2126 8.52042 17.4446 9.28485L17.2643 9.46874L19.6225 11.8305L19.8064 11.6466C21.2198 10.2332 21.667 8.22114 21.1513 6.42908C22.7198 6.22355 23.9314 4.8786 23.9314 3.256C23.9314 1.48917 22.4999 0.0540771 20.7331 0.0540771C19.1141 0.0540771 17.7763 1.2548 17.56 2.81249C15.7607 2.28605 13.7343 2.73316 12.3136 4.15023L9.49027 6.97355L6.99147 9.46874ZM21.209 17.5781C21.6345 15.8401 21.1658 13.9291 19.8064 12.5733L19.3412 12.1082L16.9831 9.74638L14.4915 7.2548L12.1297 9.61297L14.6213 12.1082L17.4446 14.9315C18.2126 15.7031 18.2126 16.9435 17.4482 17.7043C16.6838 18.4723 15.4398 18.4723 14.6718 17.7043L14.4915 17.524L12.1333 19.8858L12.3136 20.0661C13.7487 21.5048 15.8076 21.9411 17.6249 21.3858C17.917 22.8461 19.2114 23.9459 20.7583 23.9459C22.5251 23.9459 23.9602 22.5144 23.9602 20.7476C23.9602 19.1322 22.7631 17.7945 21.209 17.5781ZM16.7054 14.7512L14.3436 12.3894L11.8521 14.8846L9.02873 17.7079C8.26431 18.4723 7.02032 18.4723 6.24868 17.7043C5.48426 16.9363 5.48426 15.6959 6.24868 14.9279L6.43258 14.7476L4.0708 12.3894L3.89051 12.5661C2.51671 13.9399 2.05518 15.8762 2.50229 17.6286C1.08883 17.9639 0.0395508 19.2296 0.0395508 20.744C0.0395508 22.5108 1.47104 23.9459 3.24147 23.9459C4.7595 23.9423 6.03234 22.8858 6.36046 21.4615C8.10205 21.8942 10.0275 21.4327 11.3905 20.0697L11.8521 19.6046L14.2102 17.2428L16.7054 14.7512Z" fill="black"/>
</g>
<defs>
<clipPath id="clip0_115_366">
<rect width="24" height="24" fill="white"/>
</clipPath>
</defs>
</svg>
